public/questions/2.svg

<svg width="107" height="180" viewBox="0 0 107 180" fill="none" xmlns="http://www.w3.org/2000/svg">
<g clip-path="url(#clip0_40_147)">
<path d="M73.251 38.4538L80.3608 29.8898C83.9332 25.5863 83.8904 19.6279 80.2636 16.5763C76.6368 13.5247 70.8021 14.5458 67.2297 18.8494L63.6651 23.145V11.8816C63.6651 5.31679 59.1831 0 53.6555 0C48.1278 0 43.6459 5.3207 43.6459 11.8816V23.5245L39.7664 18.8494C36.194 14.5458 30.3593 13.5287 26.7325 16.5763C23.1057 19.624 23.063 25.5863 26.6353 29.8898L33.7451 38.4538C13.9785 45.4998 0 62.8077 0 83.0459V150.744C0 166.902 14.6082 180 32.6333 180H74.3706C92.3918 180 107.004 166.902 107.004 150.744V83.0459C107.004 62.8116 93.0254 45.5037 73.2549 38.4577L73.251 38.4538Z" fill="#3F3541"/>
<path d="M78.491 19.0296C79.5911 17.5116 78.7592 15.352 76.9284 14.9843C73.6514 14.3231 69.8419 15.7159 67.2336 18.8535L58.1763 29.7609C56.6448 31.6075 53.6555 30.516 53.6555 28.11V3.14571C53.6555 1.26782 51.7235 0.0198039 50.0287 0.80226C46.2931 2.52757 43.6459 6.83499 43.6459 11.8818V28.7985C43.5992 30.2813 43.2571 31.5489 42.0171 32.0653C40.6993 32.6169 39.4904 32.0496 38.4486 30.696C35.2455 26.8346 32.0386 22.9771 28.8355 19.1156C27.5916 17.6172 25.1543 17.985 24.4935 19.8198C23.3778 22.9145 24.0892 26.8228 26.6353 29.89L31.4672 35.7076C32.5711 37.0378 32.0775 39.0526 30.4915 39.7294C12.4625 47.4405 0 63.9386 0 83.0462V150.744C0 166.902 14.6082 180 32.6333 180H50.9461C52.3572 180 53.5039 178.846 53.5039 177.426V53.2581C53.5583 53.2581 53.6088 53.2659 53.6594 53.2659L78.491 19.0296Z" fill="#616171"/>
</g>
<defs>
<clipPath id="clip0_40_147">
<rect width="107" height="180" fill="white"/>
</clipPath>
</defs>
</svg>

<?xml version="1.0" encoding="utf-8"?>
<!-- Generator: Adobe Illustrator 27.4.1, SVG Export Plug-In . SVG Version: 6.00 Build 0)  -->
<svg version="1.1" id="Layer_1" xmlns="http://www.w3.org/2000/svg" xmlns:xlink="http://www.w3.org/1999/xlink" x="0px" y="0px"
	 viewBox="0 0 107 180" style="enable-background:new 0 0 107 180;" xml:space="preserve">
<style type="text/css">
	.st0{clip-path:url(#SVGID_00000145034034300393081890000007994865214382502786_);}
	.st1{fill:#3D2941;}
	.st2{fill:#515171;}
</style>
<g>
	<defs>
		<rect id="SVGID_1_" width="107" height="180"/>
	</defs>
	<clipPath id="SVGID_00000152248935744834592060000009967275283448693183_">
		<use xlink:href="#SVGID_1_"  style="overflow:visible;"/>
	</clipPath>
	<g style="clip-path:url(#SVGID_00000152248935744834592060000009967275283448693183_);">
		<path class="st1" d="M73.3,38.5l7.1-8.6c3.6-4.3,3.5-10.3-0.1-13.3s-9.5-2-13,2.3l-3.6,4.3V11.9c0-6.6-4.5-11.9-10-11.9
			c-5.5,0-10,5.3-10,11.9v11.6l-3.9-4.7c-3.6-4.3-9.4-5.3-13-2.3c-3.6,3-3.7,9-0.1,13.3l7.1,8.6C14,45.5,0,62.8,0,83v67.7
			C0,166.9,14.6,180,32.6,180h41.7c18,0,32.6-13.1,32.6-29.3V83C107,62.8,93,45.5,73.3,38.5L73.3,38.5z"/>
		<path class="st2" d="M78.5,19c1.1-1.5,0.3-3.7-1.6-4c-3.3-0.7-7.1,0.7-9.7,3.9l-9.1,10.9c-1.5,1.8-4.5,0.8-4.5-1.7v-25
			c0-1.9-1.9-3.1-3.6-2.3c-3.7,1.7-6.4,6-6.4,11.1v16.9c0,1.5-0.4,2.8-1.6,3.3c-1.3,0.6-2.5,0-3.6-1.4c-3.2-3.9-6.4-7.7-9.6-11.6
			c-1.2-1.5-3.7-1.1-4.3,0.7c-1.1,3.1-0.4,7,2.1,10.1l4.8,5.8c1.1,1.3,0.6,3.3-1,4C12.5,47.4,0,63.9,0,83v67.7
			C0,166.9,14.6,180,32.6,180h18.3c1.4,0,2.6-1.2,2.6-2.6V53.3c0.1,0,0.1,0,0.2,0L78.5,19z"/>
	</g>
</g>
</svg>
